client/public/img/misc/mouse2_icon.svg

<?xml version="1.0" encoding="UTF-8" standalone="no"?>
<svg
   width="18"
   height="26"
   viewBox="0 0 18 26"
   fill="none"
   version="1.1"
   id="svg6"
   xmlns="http://www.w3.org/2000/svg"
   xmlns:svg="http://www.w3.org/2000/svg">
  <defs
     id="defs6" />
  <path
     d="M0.500266 19.1929L1.80706 18.7783C2.12746 19.8187 2.59789 20.8336 3.19532 21.7488L1.89872 22.2852C1.78976 22.3433 1.73263 22.3516 1.64135 22.182L0.412304 19.4358C0.354172 19.2863 0.359385 19.2326 0.500266 19.1929Z"
     fill="#333333"
     id="path1" />
  <path
     d="M0.241987 14.3779H1.34711C1.32681 14.8336 1.3188 15.2782 1.3188 15.679C1.3188 16.6073 1.46262 17.5758 1.73277 18.528L0.41222 18.6572C0.291839 18.6681 0.236917 18.6549 0.233506 18.4833L0.0594709 14.5735C0.0551769 14.4365 0.0845722 14.3851 0.241987 14.3779Z"
     fill="#333333"
     id="path2" />
  <path
     d="M16.179 7.8322C16.3422 8.91717 16.5148 10.0653 16.7783 11.2402H10.9429V0.265625C15.1242 0.816587 15.5896 3.91203 16.179 7.8322Z"
     fill="#FF0000"
     id="path3" />
  <path
     d="M10.5004 0.217584V11.2397H8.50928V0.217588C8.82165 0.191218 9.15307 0.177734 9.50487 0.177734C9.85665 0.177734 10.1881 0.191217 10.5004 0.217584Z"
     fill="#333333"
     id="path4" />
  <path
     d="M8.06639 0.265625V11.2402H2.23096C2.49448 10.0653 2.6671 8.91719 2.83023 7.83223C3.41964 3.91205 3.88506 0.816603 8.06639 0.265625Z"
     fill="#333333"
     id="path5" />
  <path
     d="M16.9087 11.7932C16.8996 11.7563 16.8905 11.7195 16.8815 11.6826H2.12768L2.12461 11.6952C2.11925 11.7171 2.11387 11.7391 2.10845 11.761L2.10046 11.7932C1.83799 12.8488 1.76123 14.4494 1.76123 15.6791C1.76123 19.946 4.95636 25.1754 9.51034 25.1782C14.0643 25.1754 17.248 19.946 17.248 15.6791C17.248 14.4494 17.1712 12.8488 16.9087 11.7932Z"
     fill="#333333"
     id="path6" />
</svg>

<svg xmlns="http://www.w3.org/2000/svg" width="18" height="26" fill="none"><path fill="#333" d="m.5 19.193 1.307-.415c.32 1.04.79 2.056 1.388 2.97l-1.296.537c-.11.058-.166.067-.258-.103L.412 19.436c-.058-.15-.053-.203.088-.243m-.258-4.815h1.105c-.02.456-.028.9-.028 1.301 0 .928.144 1.897.414 2.849l-1.32.13c-.121.01-.176-.003-.18-.175l-.174-3.91c-.004-.136.026-.188.183-.195"/><path fill="red" d="M16.179 7.832c.163 1.085.336 2.233.6 3.408h-5.836V.266c4.181.55 4.647 3.646 5.236 7.566"/><path fill="#333" d="M10.5.218V11.24H8.51V.218q.468-.04.995-.04t.995.04M8.066.266V11.24H2.231c.263-1.175.436-2.323.6-3.408C3.42 3.912 3.884.817 8.065.266m8.844 11.527-.027-.11H2.127l-.003.012-.017.066-.008.032c-.262 1.056-.339 2.656-.339 3.886 0 4.267 3.195 9.496 7.75 9.5 4.553-.004 7.737-5.233 7.737-9.5 0-1.23-.077-2.83-.34-3.886"/></svg>
